X: 109
T: the Three Blind Mice
O: Old Round.
%R: air, jig, march
B: "The Everyday Song Book", 1927
F: http://www.library.pitt.edu/happybirthday/pdf/The_Everyday_Song_Book.pdf
Z: 2017 John Chambers <jc:trillian.mit.edu>
M: 6/8
L: 1/8
K: Eb
% - - - - - - - - - - - - - - - - - - - - - - - - - - - - -
[| "^1"G3 F3 | E3 z2z | G3 F3 | E3 z2z | "^2"B3 A2 A | G3 z2z |
w: Three blind mice, three blind mice; See how they run;
%
B3 A2 A | G3 z2B | "^3"e2 e d c d | e2 B B2 B |
w: see how they run; They all ran aft-er the farm-er's wife, She 
%
e e e d c d | e2 B B2 B | "^4"e e e
w: cut off their tails with a carv-ing knife; Did ev-er you
%
d c d | e B B B2 A | G3 F3 | E3 z2z |]
w: see such a sight in your life As three blind mice?
% - - - - - - - - - - - - - - - - - - - - - - - - - - - - -
